pages/home/run-server-side-logic-in-the-cloud.svg

<?xml version="1.0" encoding="UTF-8" standalone="no"?>
<svg width="78px" height="88px" viewBox="0 0 78 88" version="1.1" xmlns="http://www.w3.org/2000/svg" xmlns:xlink="http://www.w3.org/1999/xlink">
    <!-- Generator: Sketch 3.8.1 (29687) - http://www.bohemiancoding.com/sketch -->
    <title>Group 50</title>
    <desc>Created with Sketch.</desc>
    <defs></defs>
    <g id="Desktop-design" stroke="none" stroke-width="1" fill="none" fill-rule="evenodd">
        <g id="Home-page-v2" transform="translate(-1061.000000, -3218.000000)">
            <g id="Group-13" transform="translate(0.000000, 2944.000000)">
                <g id="Group-37">
                    <g id="Group-34" transform="translate(461.000000, 274.000000)">
                        <g id="Group-50" transform="translate(600.000000, 0.000000)">
                            <path d="M35.5238347,0.829552857 C37.4344704,-0.277494758 40.5369227,-0.275540049 42.4458143,0.829552857 L74.5375323,19.4080459 C76.4498004,20.5150935 78,23.2113212 78,25.421507 L78,62.578493 C78,64.7925883 76.4464239,67.4868612 74.5375323,68.5919541 L42.4458143,87.1704471 C40.5335462,88.2774948 37.4310968,88.27554 35.5238347,87.1704471 L3.45951196,68.5919541 C1.54887626,67.4849065 2.12051611e-14,64.7886788 1.99889639e-14,62.578493 L-4.57382396e-16,25.421507 C-1.67573088e-15,23.2074117 1.55224986,20.5131388 3.45951196,19.4080459 L35.5238347,0.829552857 Z" id="Polygon-16-Copy" fill="#903EB9"></path>
                            <path d="M30.6333333,43.65625 C30.8666667,43.4375 31,43.125 31,42.75 C31,39.25 33.9333333,36.5 37.6666667,36.5 C40.6,36.5 43.1333333,38.25 44.0666667,41 C44.3333333,41.625 45.1333333,42 45.8,41.75 C45.9422771,41.6966461 46.0724086,41.620519 46.1865062,41.527694 C46.4671028,41.5 46.757961,41.5 47,41.5 C49.9333333,41.5 52.3333333,43.75 52.3333333,46.5 C52.3333333,49.25 49.9333333,51.5 47,51.5 L44.3333333,51.5 L29.6666667,51.5 C27.4,51.5 25.6666667,49.875 25.6666667,47.75 C25.6666667,45.625 27.4,44 29.6666667,44 C30.0666667,44 30.4,43.875 30.6333333,43.65625 Z M28.4103099,41.6066404 C28.9979199,37.2828206 32.8804642,34 37.6666667,34 C41.26207,34 44.5343003,36.0198321 46.1277633,39.060956 C46.4185089,39.0237749 46.7092544,39 47,39 C51.4,39 55,42.375 55,46.5 C55,50.625 51.4,54 47,54 L44.3333334,54 L29.6666669,54 C25.9333333,54 23,51.25 23,47.75 C23,44.6536072 25.2958179,42.1442133 28.4103099,41.6066404 Z" id="Combined-Shape" stroke="#FFFFFF" fill="#FFFFFF"></path>
                        </g>
                    </g>
                </g>
            </g>
        </g>
    </g>
</svg>

<svg width="78" height="88" viewBox="0 0 78 88" xmlns="http://www.w3.org/2000/svg"><g fill="none"><path d="M35.524.83c1.911-1.107 5.013-1.105 6.922 0l32.092 18.578c1.912 1.107 3.462 3.803 3.462 6.013v37.157c0 2.214-1.554 4.908-3.462 6.013l-32.092 18.578c-1.912 1.107-5.015 1.105-6.922 0l-32.064-18.578c-1.911-1.107-3.46-3.803-3.46-6.013v-37.157c0-2.214 1.552-4.908 3.46-6.013l32.064-18.578z" fill="#903EB9"/><path d="M30.633 43.656c.233-.219.367-.531.367-.906 0-3.5 2.933-6.25 6.667-6.25 2.933 0 5.467 1.75 6.4 4.5.267.625 1.067 1 1.733.75.142-.053.272-.129.387-.222.281-.028.571-.028.813-.028 2.933 0 5.333 2.25 5.333 5s-2.4 5-5.333 5h-17.334c-2.267 0-4-1.625-4-3.75s1.733-3.75 4-3.75c.4 0 .733-.125.967-.344zm-2.223-2.05c.588-4.324 4.47-7.607 9.256-7.607 3.595 0 6.868 2.02 8.461 5.061.291-.037.581-.061.872-.061 4.4 0 8 3.375 8 7.5s-3.6 7.5-8 7.5h-17.334c-3.733 0-6.667-2.75-6.667-6.25 0-3.096 2.296-5.606 5.41-6.143z" stroke="#fff" fill="#fff"/></g></svg>
